img/on-4.svg

<svg width="43" height="40" viewBox="0 0 43 40" fill="none" xmlns="http://www.w3.org/2000/svg">
<rect width="40" height="40" rx="20" fill="#F5E9EA"/>
<g clip-path="url(#clip0_1239_196)">
<path d="M22 8C20.9093 8 20 8.90929 20 10V31C20.0001 31.5523 20.4477 31.9999 21 32H33C33.5523 31.9999 33.9999 31.5523 34 31V26.5C34 26.2239 34.2239 26 34.5 26H35C35.5641 26 36 26.4359 36 27V28C36 29.645 37.355 31 39 31C40.645 31 42 29.645 42 28V15C42 14.0566 41.5555 13.1656 40.8008 12.5996L37.5996 10.1992C37.111 9.83287 36.4866 10.0101 36.1992 10.4004C35.8716 10.8454 35.9579 11.4697 36.4004 11.8008L37.5996 12.6992C37.8518 12.8881 38.0002 13.1849 38 13.5V16C38 16.9224 38.6471 17.7135 39.5059 17.9375C39.7725 18.007 40 18.2239 40 18.5V28C40 28.5641 39.5641 29 39 29C38.4359 29 38 28.5641 38 28V27C38 25.355 36.645 24 35 24H34.5C34.2239 24 34 23.7761 34 23.5V10C34 8.90929 33.0907 8 32 8L22 8ZM22.5 10H31.5C31.777 10 32 10.223 32 10.5V17.5C32 17.777 31.777 18 31.5 18H22.5C22.223 18 22 17.777 22 17.5V10.5C22 10.223 22.223 10 22.5 10Z" fill="#DA2B36"/>
<path d="M35 25.9991H34.5V23.9991H35C36.645 23.9991 38 25.3541 38 26.9991V27.9991C38 28.5633 38.4359 28.9991 39 28.9991C39.5641 28.9991 40 28.5633 40 27.9991V18.4991C40 18.223 39.7725 18.0062 39.5059 17.9366C38.6471 17.7127 38 16.9215 38 15.9991V13.4991C38.0002 13.184 37.8518 12.8873 37.5996 12.6984L36.4004 11.7999C35.9579 11.4689 35.8716 10.8445 36.1992 10.3995C36.4866 10.0092 37.111 9.832 37.5996 10.1984L40.8008 12.5987C41.5555 13.1648 42 14.0557 42 14.9991V27.9991C42 29.6441 40.645 30.9991 39 30.9991C37.355 30.9991 36 29.6441 36 27.9991V26.9991C36 26.435 35.5641 25.9991 35 25.9991Z" fill="#C9BA81"/>
</g>
<defs>
<clipPath id="clip0_1239_196">
<rect width="24" height="24" fill="white" transform="translate(19 8)"/>
</clipPath>
</defs>
</svg>

<svg width="43" height="40" fill="none" xmlns="http://www.w3.org/2000/svg"><rect width="40" height="40" rx="20" fill="#F5E9EA"/><g clip-path="url(#a)"><path d="M22 8c-1.09 0-2 .91-2 2v21a1 1 0 0 0 1 1h12a1 1 0 0 0 1-1v-4.5a.5.5 0 0 1 .5-.5h.5c.564 0 1 .436 1 1v1c0 1.645 1.355 3 3 3s3-1.355 3-3V15c0-.943-.444-1.834-1.2-2.4l-3.2-2.4a1.002 1.002 0 0 0-1.4.2 1.003 1.003 0 0 0 .2 1.4l1.2.9a1 1 0 0 1 .4.8V16c0 .922.647 1.713 1.506 1.938.267.069.494.286.494.562V28c0 .564-.436 1-1 1-.564 0-1-.436-1-1v-1c0-1.645-1.355-3-3-3h-.5a.5.5 0 0 1-.5-.5V10c0-1.09-.91-2-2-2H22Zm.5 2h9c.277 0 .5.223.5.5v7c0 .277-.223.5-.5.5h-9a.499.499 0 0 1-.5-.5v-7c0-.277.223-.5.5-.5Z" fill="#DA2B36"/><path d="M35 26h-.5v-2h.5c1.645 0 3 1.354 3 3v1c0 .563.436 1 1 1 .564 0 1-.437 1-1v-9.5c0-.277-.227-.494-.494-.563A2.021 2.021 0 0 1 38 15.999v-2.5a1 1 0 0 0-.4-.8l-1.2-.9a1.003 1.003 0 0 1-.2-1.4c.287-.39.911-.567 1.4-.2l3.2 2.4a3.003 3.003 0 0 1 1.2 2.4v13c0 1.645-1.355 3-3 3s-3-1.355-3-3v-1c0-.564-.436-1-1-1Z" fill="#C9BA81"/></g><defs><clipPath id="a"><path fill="#fff" transform="translate(19 8)" d="M0 0h24v24H0z"/></clipPath></defs></svg>
